;Sliced by ideaMaker 5.0.6.8380, 2024-07-06 14:04:00 UTC+0800
;Slicer Version: 5.0.6.8380
;Dimension: 385.000 320.000 400.000 0.400 0.400
;Plate Shape: 0
;Origin Center: 0
;Extruder Offset #1: 0.000 0.000
;Filament Diameter #1: 1.750
;Filament Diameter #2: 1.750
;Filament Compensation #1: 100.00
;Filament Compensation #2: 100.00
;Filament Density #1: 1240.00
;Filament Density #2: 1240.00
;Filament Type #1: PLA
;Filament Type #2: PLA
;Filament Name #1: [Raise3D] Premium PLA 1.75mm - V2 Hot End
;Filament Name #2: [Raise3D] Premium PLA 1.75mm - V2 Hot End
;Firmware: RepRapFirmware
;Bounding Box: 170.157 214.840 123.185 196.840 0.000 47.900
;Model Gap: 0.000
;
;
M221 T0 S100.00
M221 T1 S100.00
M140 S50.00
M104 T0 S200.00
M104 T1 S200.00
M109 T0 S200.00
M109 T1 S200.00
T0
M190 S50.00
G21
G90
M82
M107
G28
G1 Z15.0 F9000.0
T0
G92 E0
G1 X30 Y0 F8400
G1 Z0.3 F800
G1 X85 Y0 E13 F800
G1 E15 F400
G1 Z5 F400
G92 E0
G0 E-5.00 F400
T1
G92 E0
G1 X210 Y0 F8400
G1 Z0.3 F800
G1 X275 Y0 E13 F800
G1 E15 F800
G1 Z5 F400
G92 E0
G0 E-5.00 F400
T0
M1001
;TOTAL_NUM: 2
;PRINTING_TIME: 0
;REMAINING_TIME: 3166
;LAYER:0
;Z:0.300
;HEIGHT:0.300
M106 S0
;PRINTING: NON-OBJECT
;PRINTING_ID: -1
M204 T5000.00
M566 X900.00 Y900.00
G0 F9000 X177.609 Y133.835
G0 F720 Z0.300
M204 P5000.00
;TYPE:SKIRT
;WIDTH:0.408
;FLOW:102.0
G1 F2400 X178.030 Y133.302 E0.0353
G1 X178.265 Y133.038 E0.0536
G1 X178.562 Y132.642 E0.0793
G1 X179.784 Y131.229 E0.1763
G1 X180.181 Y130.833 E0.2054
G1 X180.844 Y130.112 E0.2562
G1 X181.978 Y129.004 E0.3385
G1 X182.497 Y128.553 E0.3742
G1 X183.008 Y128.059 E0.4111
G1 X183.731 Y127.468 E0.4596
G1 X184.266 Y126.999 E0.4965
G1 X184.759 Y126.613 E0.5290
G1 X185.121 Y126.355 E0.5521
G1 X185.605 Y125.959 E0.5845
G1 X186.226 Y125.502 E0.6245
G1 X186.739 Y125.175 E0.6561
G1 X187.080 Y124.916 E0.6783
G1 X187.633 Y124.542 E0.7130
G1 X188.061 Y124.295 E0.7386
G1 X188.909 Y123.887 E0.7875
G1 X190.074 Y123.489 E0.8514
G1 X190.833 Y123.322 E0.8917
G1 X191.583 Y123.221 E0.9310
G1 X192.153 Y123.185 E0.9607
G1 X192.892 Y123.186 E0.9990
G1 X193.507 Y123.231 E1.0310
G1 X194.311 Y123.346 E1.0732
G1 X195.020 Y123.517 E1.1110
G1 X195.476 Y123.658 E1.1358
G1 X196.188 Y123.930 E1.1754
G1 X197.255 Y124.479 E1.2377
G1 X199.227 Y125.833 E1.3618
G1 X199.860 Y126.343 E1.4040
G1 X200.548 Y126.849 E1.4483
G1 X201.231 Y127.441 E1.4953
G1 X201.641 Y127.760 E1.5222
G1 X203.205 Y129.180 E1.6319
G1 X203.647 Y129.638 E1.6649
G1 X204.059 Y130.012 E1.6938
G1 X204.505 Y130.471 E1.7270
G1 X204.813 Y130.823 E1.7513
G1 X205.167 Y131.178 E1.7773
G1 X206.568 Y132.805 E1.8888
G1 X206.769 Y133.079 E1.9064
G1 X207.088 Y133.446 E1.9316
G1 X207.882 Y134.500 E2.0001
G1 X209.046 Y136.176 E2.1060
G1 X209.821 Y137.407 E2.1815
G1 X210.426 Y138.440 E2.2437
G1 X211.032 Y139.555 E2.3096
G1 X211.557 Y140.597 E2.3701
G1 X212.615 Y142.999 E2.5064
G1 X213.014 Y144.041 E2.5643
G1 X213.378 Y145.070 E2.6209
G1 X213.759 Y146.282 E2.6869
G1 X214.357 Y148.518 E2.8070
G1 X214.490 Y149.167 E2.8414
G1 X214.605 Y149.876 E2.8787
G1 X214.677 Y150.594 E2.9161
G1 X214.786 Y152.209 E3.0002
G1 X214.834 Y153.736 E3.0795
G1 X214.840 Y155.045 E3.1474
G1 X214.814 Y156.249 E3.2099
G1 X214.726 Y157.906 E3.2960
G1 X214.597 Y159.398 E3.3738
G1 X214.458 Y160.628 E3.4380
G1 X214.182 Y162.488 E3.5356
G1 X213.224 Y168.070 E3.8296
G1 X212.587 Y172.132 E4.0430
G1 X211.866 Y177.234 E4.3105
G1 X211.338 Y181.385 E4.5277
G1 X210.959 Y184.705 E4.7011
G1 X210.524 Y188.885 E4.9192
G1 X210.450 Y189.406 E4.9466
G1 X210.291 Y190.111 E4.9841
G1 X210.071 Y190.845 E5.0238
G1 X209.754 Y191.633 E5.0679
G1 X209.518 Y192.105 E5.0953
G1 X209.327 Y192.439 E5.1153
G1 X208.859 Y193.153 E5.1596
G1 X208.077 Y194.091 E5.2230
G1 X207.167 Y194.918 E5.2868
G1 X206.594 Y195.331 E5.3235
G1 X206.183 Y195.587 E5.3486
G1 X205.492 Y195.957 E5.3893
G1 X205.110 Y196.128 E5.4110
G1 X204.376 Y196.406 E5.4518
G1 X203.573 Y196.623 E5.4949
G1 X202.541 Y196.792 E5.5492
G1 X201.717 Y196.839 E5.5921
G1 X183.277 Y196.840 E6.5492
G1 X182.231 Y196.765 E6.6036
G1 X181.405 Y196.618 E6.6472
G1 X180.966 Y196.503 E6.6707
G1 X180.301 Y196.292 E6.7070
G1 X179.637 Y196.019 E6.7442
G1 X178.993 Y195.691 E6.7817
G1 X178.379 Y195.313 E6.8192
G1 X177.962 Y195.017 E6.8457
G1 X177.386 Y194.539 E6.8846
G1 X176.873 Y194.037 E6.9218
G1 X176.387 Y193.485 E6.9600
G1 X175.961 Y192.904 E6.9974
G1 X175.606 Y192.332 E7.0323
G1 X175.320 Y191.793 E7.0640
G1 X174.993 Y191.032 E7.1070
G1 X174.667 Y189.952 E7.1655
G1 X174.571 Y189.494 E7.1898
G1 X174.472 Y188.855 E7.2234
G1 X173.799 Y182.551 E7.5525
G1 X173.009 Y176.299 E7.8796
G1 X172.583 Y173.270 E8.0383
G1 X171.959 Y169.219 E8.2511
G1 X170.737 Y161.982 E8.6320
G1 X170.596 Y161.038 E8.6816
G1 X170.432 Y159.667 E8.7533
G1 X170.291 Y158.123 E8.8337
G1 X170.231 Y157.259 E8.8787
G1 X170.182 Y156.172 E8.9352
G1 X170.157 Y154.958 E8.9982
G1 X170.166 Y153.548 E9.0714
G1 X170.237 Y151.752 E9.1647
G1 X170.322 Y150.606 E9.2243
G1 X170.427 Y149.752 E9.2690
G1 X170.609 Y148.683 E9.3253
G1 X170.946 Y147.321 E9.3981
G1 X171.249 Y146.247 E9.4560
G1 X171.587 Y145.174 E9.5144
G1 X172.020 Y143.945 E9.5821
G1 X172.210 Y143.491 E9.6076
G1 X172.408 Y142.942 E9.6379
G1 X173.355 Y140.789 E9.7600
G1 X174.115 Y139.278 E9.8478
G1 X174.682 Y138.241 E9.9091
G1 X175.581 Y136.750 E9.9995
G1 X176.760 Y134.995 E10.1092
G1 X177.609 Y133.835 E10.1838
G1 F1800 E9.6838
G0 F9000 X177.929 Y134.088
G1 F1800 E10.1838
G1 F2400 X178.334 Y133.574 E10.2178
G1 X178.582 Y133.296 E10.2371
G1 X178.871 Y132.909 E10.2622
G1 X180.093 Y131.496 E10.3592
G1 X180.469 Y131.122 E10.3867
G1 X181.129 Y130.404 E10.4373
G1 X182.263 Y129.296 E10.5196
G1 X182.779 Y128.848 E10.5551
G1 X183.292 Y128.352 E10.5921
G1 X183.999 Y127.776 E10.6395
G1 X184.518 Y127.320 E10.6753
G1 X185.011 Y126.934 E10.7078
G1 X185.368 Y126.680 E10.7306
G1 X185.847 Y126.287 E10.7627
G1 X186.445 Y125.846 E10.8013
G1 X186.977 Y125.507 E10.8340
G1 X187.309 Y125.254 E10.8557
G1 X187.862 Y124.880 E10.8904
G1 X188.239 Y124.662 E10.9130
G1 X189.042 Y124.273 E10.9593
G1 X190.162 Y123.887 E11.0208
G1 X190.888 Y123.726 E11.0594
G1 X191.609 Y123.628 E11.0971
G1 X192.152 Y123.593 E11.1254
G1 X192.891 Y123.594 E11.1637
G1 X193.450 Y123.635 E11.1928
G1 X194.216 Y123.743 E11.2330
G1 X194.900 Y123.907 E11.2695
G1 X195.330 Y124.039 E11.2928
G1 X196.042 Y124.311 E11.3324
G1 X197.024 Y124.815 E11.3897
G1 X198.971 Y126.151 E11.5123
G1 X199.604 Y126.661 E11.5545
G1 X200.281 Y127.157 E11.5980
G1 X200.980 Y127.763 E11.6460
G1 X201.390 Y128.082 E11.6730
G1 X202.911 Y129.463 E11.7796
G1 X203.360 Y129.928 E11.8132
G1 X203.767 Y130.297 E11.8417
G1 X204.198 Y130.740 E11.8738
G1 X204.513 Y131.100 E11.8986
G1 X204.878 Y131.466 E11.9254
G1 X206.239 Y133.046 E12.0337
G1 X206.448 Y133.331 E12.0520
G1 X206.762 Y133.691 E12.0768
G1 X207.547 Y134.733 E12.1445
G1 X208.701 Y136.393 E12.2495
G1 X209.469 Y137.613 E12.3243
G1 X210.068 Y138.635 E12.3858
G1 X210.668 Y139.739 E12.4510
G1 X211.184 Y140.762 E12.5105
G1 X212.234 Y143.145 E12.6457
G1 X212.633 Y144.187 E12.7036
G1 X212.993 Y145.206 E12.7597
G1 X213.365 Y146.387 E12.8239
G1 X213.957 Y148.600 E12.9428
G1 X214.087 Y149.232 E12.9763
G1 X214.202 Y149.941 E13.0136
G1 X214.271 Y150.634 E13.0498
G1 X214.378 Y152.222 E13.1324
G1 X214.426 Y153.749 E13.2117
G1 X214.432 Y155.047 E13.2790
G1 X214.406 Y156.240 E13.3410
G1 X214.319 Y157.884 E13.4264
G1 X214.191 Y159.363 E13.5035
G1 X214.054 Y160.568 E13.5664
G1 X213.778 Y162.428 E13.6640
G1 X212.822 Y168.001 E13.9575
G1 X212.184 Y172.069 E14.1713
G1 X211.462 Y177.177 E14.4390
G1 X210.933 Y181.333 E14.6565
G1 X210.554 Y184.663 E14.8305
G1 X210.120 Y188.828 E15.0478
G1 X210.046 Y189.349 E15.0751
G1 X209.900 Y189.994 E15.1095
G1 X209.680 Y190.728 E15.1492
G1 X209.389 Y191.451 E15.1897
G1 X209.164 Y191.903 E15.2159
G1 X208.986 Y192.215 E15.2345
G1 X208.518 Y192.929 E15.2789
G1 X207.764 Y193.829 E15.3398
G1 X206.928 Y194.587 E15.3984
G1 X206.355 Y195.000 E15.4350
G1 X205.990 Y195.227 E15.4573
G1 X205.299 Y195.597 E15.4980
G1 X204.965 Y195.747 E15.5170
G1 X204.270 Y196.012 E15.5556
G1 X203.467 Y196.229 E15.5988
G1 X202.476 Y196.389 E15.6509
G1 X201.717 Y196.431 E15.6904
G1 X183.277 Y196.432 E16.6475
G1 X182.302 Y196.363 E16.6983
G1 X181.508 Y196.223 E16.7401
G1 X181.069 Y196.108 E16.7637
G1 X180.456 Y195.915 E16.7970
G1 X179.822 Y195.655 E16.8326
G1 X179.178 Y195.327 E16.8701
G1 X178.615 Y194.980 E16.9044
G1 X178.198 Y194.684 E16.9310
G1 X177.671 Y194.247 E16.9665
G1 X177.179 Y193.767 E17.0022
G1 X176.693 Y193.215 E17.0404
G1 X176.308 Y192.689 E17.0742
G1 X175.953 Y192.117 E17.1091
G1 X175.681 Y191.602 E17.1394
G1 X175.368 Y190.871 E17.1806
G1 X175.066 Y189.868 E17.2350
G1 X174.974 Y189.432 E17.2581
G1 X174.878 Y188.812 E17.2907
G1 X174.205 Y182.508 E17.6198
G1 X173.414 Y176.248 E17.9473
G1 X172.987 Y173.213 E18.1064
G1 X172.362 Y169.157 E18.3194
G1 X171.139 Y161.914 E18.7007
G1 X171.001 Y160.990 E18.7492
G1 X170.837 Y159.619 E18.8208
G1 X170.697 Y158.086 E18.9007
G1 X170.638 Y157.231 E18.9452
G1 X170.590 Y156.154 E19.0012
G1 X170.565 Y154.950 E19.0637
G1 X170.574 Y153.564 E19.1356
G1 X170.644 Y151.782 E19.2282
G1 X170.727 Y150.656 E19.2868
G1 X170.832 Y149.802 E19.3315
G1 X171.005 Y148.781 E19.3852
G1 X171.339 Y147.432 E19.4574
G1 X171.642 Y146.358 E19.5153
G1 X171.972 Y145.310 E19.5723
G1 X172.405 Y144.081 E19.6399
G1 X172.592 Y143.636 E19.6650
G1 X172.782 Y143.106 E19.6942
G1 X173.720 Y140.972 E19.8152
G1 X174.473 Y139.474 E19.9022
G1 X175.040 Y138.437 E19.9636
G1 X175.920 Y136.977 E20.0521
G1 X177.089 Y135.236 E20.1609
G1 X177.929 Y134.088 E20.2348
G1 F1800 E19.7348
G1 F720 Z0.500
G0 F9000 X178.250 Y134.340
G1 F720 Z0.300
G1 F1800 E20.2348
G1 F2400 X178.639 Y133.845 E20.2674
G1 X178.898 Y133.554 E20.2877
G1 X179.180 Y133.176 E20.3121
G1 X180.402 Y131.763 E20.4091
G1 X180.769 Y131.399 E20.4359
G1 X181.414 Y130.696 E20.4855
G1 X182.548 Y129.588 E20.5677
G1 X183.061 Y129.143 E20.6030
G1 X183.550 Y128.668 E20.6384
G1 X184.266 Y128.085 E20.6863
G1 X184.770 Y127.641 E20.7212
G1 X185.248 Y127.266 E20.7527
G1 X185.624 Y126.998 E20.7767
G1 X186.106 Y126.603 E20.8090
G1 X186.687 Y126.174 E20.8465
G1 X187.213 Y125.840 E20.8788
G1 X187.538 Y125.592 E20.9001
G1 X188.091 Y125.218 E20.9347
G1 X188.417 Y125.029 E20.9543
G1 X189.220 Y124.640 E21.0006
G1 X190.251 Y124.285 E21.0572
G1 X190.943 Y124.130 E21.0940
G1 X191.636 Y124.035 E21.1303
G1 X192.151 Y124.001 E21.1571
G1 X192.890 Y124.002 E21.1955
G1 X193.394 Y124.039 E21.2217
G1 X194.121 Y124.140 E21.2598
G1 X194.805 Y124.304 E21.2963
G1 X195.184 Y124.420 E21.3169
G1 X195.896 Y124.692 E21.3564
G1 X196.793 Y125.151 E21.4087
G1 X198.715 Y126.469 E21.5297
G1 X199.349 Y126.979 E21.5719
G1 X200.014 Y127.465 E21.6147
G1 X200.729 Y128.085 E21.6638
G1 X201.139 Y128.404 E21.6908
G1 X202.618 Y129.747 E21.7945
G1 X203.081 Y130.226 E21.8290
G1 X203.475 Y130.582 E21.8566
G1 X203.891 Y131.009 E21.8875
G1 X204.206 Y131.369 E21.9124
G1 X204.569 Y131.732 E21.9390
G1 X205.910 Y133.288 E22.0456
G1 X206.123 Y133.578 E22.0643
G1 X206.438 Y133.939 E22.0892
G1 X206.800 Y134.411 E22.1201
G1 X207.003 Y134.709 E22.1388
G1 X207.212 Y134.966 E22.1560
G1 X208.356 Y136.610 E22.2599
G1 X209.117 Y137.819 E22.3341
G1 X209.710 Y138.830 E22.3949
G1 X210.304 Y139.923 E22.4595
G1 X210.820 Y140.946 E22.5190
G1 X211.853 Y143.291 E22.6520
G1 X212.252 Y144.333 E22.7099
G1 X212.608 Y145.342 E22.7654
G1 X212.971 Y146.493 E22.8281
G1 X213.557 Y148.682 E22.9457
G1 X213.687 Y149.314 E22.9792
G1 X213.799 Y150.006 E23.0156
G1 X213.864 Y150.661 E23.0497
G1 X213.970 Y152.235 E23.1316
G1 X214.018 Y153.762 E23.2109
G1 X214.024 Y155.049 E23.2777
G1 X213.998 Y156.231 E23.3391
G1 X213.913 Y157.849 E23.4232
G1 X213.785 Y159.328 E23.5002
G1 X213.650 Y160.508 E23.5619
G1 X213.374 Y162.368 E23.6595
G1 X212.420 Y167.932 E23.9525
G1 X211.781 Y172.006 E24.1666
G1 X211.058 Y177.120 E24.4346
G1 X210.528 Y181.281 E24.6524
G1 X210.149 Y184.621 E24.8269
G1 X209.714 Y188.786 E25.0442
G1 X209.642 Y189.291 E25.0707
G1 X209.509 Y189.877 E25.1019
G1 X209.289 Y190.611 E25.1417
G1 X209.011 Y191.298 E25.1801
G1 X208.809 Y191.702 E25.2036
G1 X208.644 Y191.993 E25.2209
G1 X208.205 Y192.668 E25.2627
G1 X207.489 Y193.527 E25.3208
G1 X206.689 Y194.256 E25.3770
G1 X206.116 Y194.669 E25.4136
G1 X205.797 Y194.868 E25.4331
G1 X205.132 Y195.225 E25.4723
G1 X204.818 Y195.366 E25.4902
G1 X204.164 Y195.618 E25.5266
G1 X203.361 Y195.835 E25.5697
G1 X202.412 Y195.986 E25.6196
G1 X201.717 Y196.023 E25.6557
G1 X183.277 Y196.024 E26.6129
G1 X182.372 Y195.961 E26.6600
G1 X181.611 Y195.828 E26.7001
G1 X181.192 Y195.719 E26.7225
G1 X180.579 Y195.526 E26.7559
G1 X180.006 Y195.291 E26.7880
G1 X179.392 Y194.980 E26.8238
G1 X178.851 Y194.647 E26.8567
G1 X178.458 Y194.369 E26.8817
G1 X177.955 Y193.954 E26.9156
G1 X177.485 Y193.497 E26.9496
G1 X176.999 Y192.945 E26.9878
G1 X176.655 Y192.474 E27.0180
G1 X176.300 Y191.902 E27.0530
G1 X176.056 Y191.441 E27.0801
G1 X175.743 Y190.710 E27.1213
G1 X175.465 Y189.783 E27.1716
G1 X175.377 Y189.369 E27.1935
G1 X175.284 Y188.770 E27.2250
G1 X174.825 Y184.362 E27.4550
G1 X174.609 Y182.457 E27.5546
G1 X173.819 Y176.197 E27.8821
G1 X173.391 Y173.156 E28.0415
G1 X172.765 Y169.095 E28.2547
G1 X171.541 Y161.846 E28.6363
G1 X171.406 Y160.942 E28.6838
G1 X171.242 Y159.571 E28.7554
G1 X171.103 Y158.049 E28.8348
G1 X171.045 Y157.203 E28.8788
G1 X170.998 Y156.136 E28.9342
G1 X170.973 Y154.953 E28.9956
G1 X170.982 Y153.580 E29.0669
G1 X171.052 Y151.798 E29.1595
G1 X171.132 Y150.706 E29.2163
G1 X171.237 Y149.852 E29.2610
G1 X171.401 Y148.879 E29.3122
G1 X171.732 Y147.543 E29.3836
G1 X172.035 Y146.469 E29.4416
G1 X172.357 Y145.446 E29.4972
G1 X172.790 Y144.217 E29.5649
G1 X172.968 Y143.795 E29.5886
G1 X173.166 Y143.244 E29.6190
G1 X174.085 Y141.155 E29.7375
G1 X174.838 Y139.657 E29.8245
G1 X175.390 Y138.647 E29.8843
G1 X176.259 Y137.204 E29.9717
G1 X177.418 Y135.477 E30.0796
G1 X178.250 Y134.340 E30.1528
;PRINTING: 3DBenchy_cut_you.stl
;PRINTING_ID: 1
G1 F1800 E29.6528
G1 F720 Z0.500
G0 F9000 X192.703 Y185.791
;TYPE:WALL-OUTER
;WIDTH:0.408
G1 F720 Z0.300
G1 F1800 E30.1528
G1 F2400 X192.703 Y146.750 E32.1792
G1 X193.054 Y146.911 E32.1993
G1 X193.626 Y147.259 E32.2340
G1 X194.200 Y147.644 E32.2699
G1 X194.933 Y148.194 E32.3175
G1 X195.699 Y148.849 E32.3698
G1 X196.424 Y149.560 E32.4225
G1 X196.774 Y149.940 E32.4493
G1 X197.199 Y150.438 E32.4833
G1 X197.609 Y150.967 E32.5180
G1 X197.989 Y151.503 E32.5521
G1 X198.484 Y152.283 E32.6001
G1 X198.979 Y153.189 E32.6537
G1 X199.495 Y154.331 E32.7187
G1 X199.709 Y154.898 E32.7502
G1 X199.989 Y155.768 E32.7976
G1 X200.143 Y156.343 E32.8285
G1 X200.296 Y157.035 E32.8653
G1 X200.459 Y158.023 E32.9173
G1 X200.526 Y158.635 E32.9492
G1 X200.568 Y159.280 E32.9828
G1 X200.583 Y159.900 E33.0150
G1 X200.569 Y160.593 E33.0509
G1 X199.075 Y184.421 E34.2902
G1 X199.014 Y184.722 E34.3061
G1 X198.940 Y184.919 E34.3171
G1 X198.842 Y185.101 E34.3278
G1 X198.642 Y185.347 E34.3442
G1 X198.396 Y185.543 E34.3606
G1 X198.209 Y185.643 E34.3716
G1 X198.005 Y185.719 E34.3829
G1 X197.760 Y185.771 E34.3959
G1 X197.564 Y185.791 E34.4061
G1 X192.703 Y185.791 E34.6584
G0 F3600 X192.703 Y185.591
G0 F9000 X193.211 Y185.373
G0 X193.121 Y185.283
G0 X193.111 Y185.383
;TYPE:WALL-INNER
;WIDTH:0.408
G1 F2400 X193.111 Y147.605 E36.6193
G1 X193.266 Y147.518 E36.6285
G1 X193.406 Y147.603 E36.6370
G1 X193.964 Y147.977 E36.6719
G1 X194.678 Y148.513 E36.7182
G1 X195.423 Y149.150 E36.7691
G1 X196.131 Y149.844 E36.8206
G1 X196.882 Y150.696 E36.8795
G1 X197.281 Y151.210 E36.9133
G1 X197.650 Y151.730 E36.9464
G1 X198.132 Y152.490 E36.9931
G1 X198.614 Y153.371 E37.0452
G1 X199.118 Y154.487 E37.1088
G1 X199.324 Y155.033 E37.1391
G1 X199.598 Y155.883 E37.1854
G1 X199.747 Y156.440 E37.2154
G1 X199.895 Y157.112 E37.2511
G1 X200.055 Y158.078 E37.3019
G1 X200.119 Y158.670 E37.3328
G1 X200.160 Y159.298 E37.3655
G1 X200.175 Y159.901 E37.3968
G1 X200.161 Y160.576 E37.4318
G1 X198.670 Y184.367 E38.6692
G1 X198.621 Y184.609 E38.6820
G1 X198.568 Y184.750 E38.6898
G1 X198.501 Y184.874 E38.6971
G1 X198.353 Y185.055 E38.7092
G1 X198.171 Y185.201 E38.7214
G1 X198.041 Y185.270 E38.7290
G1 X197.891 Y185.326 E38.7373
