;Sliced by ideaMaker 5.0.6.8380, 2024-07-01 16:16:38 UTC+0800
;Slicer Version: 5.0.6.8380
;Dimension: 385.000 320.000 400.000 0.400 0.400
;Plate Shape: 0
;Origin Center: 0
;Extruder Offset #1: 0.000 0.000
;Filament Diameter #1: 1.750
;Filament Diameter #2: 1.750
;Filament Compensation #1: 100.00
;Filament Compensation #2: 100.00
;Filament Density #1: 1240.00
;Filament Density #2: 1240.00
;Filament Type #1: PLA
;Filament Type #2: PLA
;Filament Name #1: [Raise3D] Premium PLA 1.75mm - V2 Hot End
;Filament Name #2: [Raise3D] Premium PLA 1.75mm - V2 Hot End
;Firmware: RepRapFirmware
;Bounding Box: 90.858 285.715 22.624 210.127 0.000 0.300
;Model Gap: 0.000
;
;
M221 T0 S100.00
M221 T1 S100.00
T0
G21
G90
M82
M107
G28
G1 Z15.0 F7200.0
T0
G92 E0
G1 X30 Y0 F8400
G1 Z0.3 F800
G1 X85 Y0 E13 F800
G1 E15 F400
G1 Z5 F400
G92 E0
G0 E-5.00 F400
T1
G92 E0
G1 X210 Y0 F8400
G1 Z0.3 F800
G1 X275 Y0 E13 F800
G1 E15 F800
G1 Z5 F400
G92 E0
G0 E-5.00 F400
T0
M1001
;TOTAL_NUM: 2
;PRINTING_TIME: 0
;REMAINING_TIME: 247
;LAYER:0
;Z:0.300
;HEIGHT:0.300
M106 S0
;PRINTING: NON-OBJECT
;PRINTING_ID: -1
M204 T5000.00
M566 X900.00 Y900.00
G0 F7200 X112.954 Y71.475
G0 F720 Z0.300
M204 P5000.00
;TYPE:SKIRT
;WIDTH:0.420
;FLOW:105.0
G1 F2100 X113.488 Y70.698 E0.0519
G1 X113.997 Y70.063 E0.0966
G1 X114.646 Y69.371 E0.1488
G1 X115.369 Y68.710 E0.2027
G1 X116.081 Y68.157 E0.2523
G1 X116.965 Y67.583 E0.3102
G1 X117.720 Y67.173 E0.3575
G1 X118.551 Y66.799 E0.4076
G1 X119.532 Y66.450 E0.4649
G1 X120.409 Y66.218 E0.5148
G1 X121.334 Y66.049 E0.5665
G1 X122.090 Y65.973 E0.6083
G1 X122.117 Y65.917 E0.6117
G1 X122.121 Y64.348 E0.6980
G1 X122.159 Y63.466 E0.7466
G1 X122.278 Y62.472 E0.8017
G1 X122.477 Y61.506 E0.8559
G1 X122.751 Y60.572 E0.9094
G1 X123.083 Y59.708 E0.9604
G1 X123.478 Y58.873 E1.0112
G1 X123.962 Y58.032 E1.0645
G1 X124.494 Y57.261 E1.1161
G1 X124.980 Y56.653 E1.1589
G1 X125.588 Y55.994 E1.2082
G1 X126.429 Y55.226 E1.2708
G1 X127.149 Y54.674 E1.3207
G1 X127.943 Y54.159 E1.3728
G1 X128.692 Y53.749 E1.4198
G1 X129.586 Y53.346 E1.4737
G1 X130.437 Y53.042 E1.5234
G1 X130.544 Y52.737 E1.5412
G1 X130.923 Y51.878 E1.5928
G1 X131.349 Y51.087 E1.6422
G1 X131.838 Y50.323 E1.6921
G1 X132.464 Y49.498 E1.7491
G1 X133.058 Y48.839 E1.7979
G1 X133.764 Y48.170 E1.8514
G1 X134.500 Y47.571 E1.9036
G1 X135.095 Y47.156 E1.9435
G1 X136.099 Y46.567 E2.0075
G1 X136.931 Y46.173 E2.0582
G1 X137.654 Y45.891 E2.1008
G1 X138.696 Y45.576 E2.1607
G1 X139.606 Y45.384 E2.2119
G1 X140.465 Y45.271 E2.2595
G1 X141.569 Y45.213 E2.3203
G1 X143.598 Y45.214 E2.4319
G1 X143.951 Y45.233 E2.4514
G1 X144.476 Y44.576 E2.4976
G1 X145.051 Y43.967 E2.5437
G1 X145.837 Y43.256 E2.6020
G1 X146.530 Y42.723 E2.6501
G1 X147.327 Y42.205 E2.7024
G1 X148.169 Y41.748 E2.7551
G1 X149.068 Y41.352 E2.8091
G1 X149.936 Y41.049 E2.8597
G1 X150.861 Y40.808 E2.9123
G1 X151.802 Y40.639 E2.9648
G1 X152.694 Y40.550 E3.0141
G1 X153.367 Y40.527 E3.0512
G1 X195.027 Y40.527 E5.3427
G1 X195.265 Y40.314 E5.3602
G1 X195.936 Y39.790 E5.4070
G1 X196.690 Y39.288 E5.4569
G1 X197.630 Y38.767 E5.5160
G1 X198.471 Y38.390 E5.5667
G1 X199.468 Y38.040 E5.6248
G1 X200.361 Y37.808 E5.6755
G1 X201.302 Y37.639 E5.7281
G1 X202.194 Y37.550 E5.7774
G1 X202.867 Y37.527 E5.8145
G1 X203.760 Y37.527 E5.8636
G1 X204.568 Y37.558 E5.9081
G1 X205.493 Y37.663 E5.9593
G1 X206.528 Y37.866 E6.0173
G1 X207.527 Y38.155 E6.0745
G1 X208.355 Y38.472 E6.1233
G1 X209.072 Y38.804 E6.1667
G1 X209.960 Y39.300 E6.2227
G1 X210.842 Y39.899 E6.2813
G1 X211.606 Y40.527 E6.3357
G1 X226.802 Y40.521 E7.1716
G1 X226.520 Y39.517 E7.2289
G1 X226.342 Y38.600 E7.2803
G1 X226.234 Y37.654 E7.3327
G1 X226.204 Y36.888 E7.3748
G1 X226.204 Y34.427 E7.5102
G1 X226.243 Y33.562 E7.5578
G1 X226.352 Y32.648 E7.6085
G1 X226.541 Y31.708 E7.6612
G1 X226.808 Y30.775 E7.7146
G1 X227.131 Y29.916 E7.7650
G1 X227.541 Y29.037 E7.8184
G1 X228.024 Y28.194 E7.8718
G1 X228.577 Y27.389 E7.9256
G1 X229.129 Y26.704 E7.9739
G1 X229.714 Y26.084 E8.0208
G1 X230.442 Y25.418 E8.0751
G1 X231.173 Y24.848 E8.1261
G1 X231.982 Y24.317 E8.1793
G1 X232.824 Y23.855 E8.2321
G1 X233.704 Y23.463 E8.2851
G1 X234.619 Y23.142 E8.3385
G1 X235.467 Y22.917 E8.3867
G1 X236.470 Y22.733 E8.4428
G1 X237.340 Y22.644 E8.4909
G1 X238.362 Y22.624 E8.5471
G1 X239.295 Y22.680 E8.5986
G1 X240.221 Y22.809 E8.6500
G1 X240.976 Y22.970 E8.6924
G1 X242.043 Y23.291 E8.7537
G1 X242.917 Y23.635 E8.8054
G1 X243.479 Y23.901 E8.8396
G1 X255.868 Y30.224 E9.6047
G1 X256.741 Y30.722 E9.6599
G1 X257.454 Y31.205 E9.7073
G1 X258.161 Y31.767 E9.7570
G1 X258.892 Y32.448 E9.8119
G1 X259.519 Y33.133 E9.8630
G1 X260.119 Y33.908 E9.9169
G1 X260.645 Y34.712 E9.9698
G1 X261.026 Y35.402 E10.0131
G1 X261.467 Y36.376 E10.0719
G1 X261.796 Y37.298 E10.1258
G1 X262.003 Y38.052 E10.1688
G1 X262.209 Y39.144 E10.2299
G1 X262.301 Y40.041 E10.2795
G1 X262.315 Y40.527 E10.3063
G1 X273.501 Y40.528 E10.9215
G1 X274.460 Y40.575 E10.9743
G1 X275.394 Y40.694 E11.0261
G1 X276.161 Y40.850 E11.0692
G1 X277.136 Y41.125 E11.1249
G1 X278.017 Y41.455 E11.1766
G1 X278.896 Y41.865 E11.2300
G1 X279.768 Y42.367 E11.2853
G1 X280.545 Y42.902 E11.3372
G1 X281.216 Y43.443 E11.3846
G1 X281.813 Y44.002 E11.4296
G1 X282.526 Y44.777 E11.4875
G1 X283.064 Y45.464 E11.5355
G1 X283.616 Y46.304 E11.5908
G1 X284.039 Y47.069 E11.6389
G1 X284.488 Y48.075 E11.6995
G1 X284.796 Y48.957 E11.7509
G1 X284.998 Y49.709 E11.7937
G1 X285.203 Y50.814 E11.8555
G1 X285.293 Y51.721 E11.9057
G1 X285.315 Y52.389 E11.9424
G1 X285.314 Y53.510 E12.0041
G1 X285.275 Y54.383 E12.0522
G1 X285.171 Y55.260 E12.1007
G1 X285.004 Y56.116 E12.1487
G1 X284.915 Y56.473 E12.1689
G1 X284.908 Y59.342 E12.3268
G1 X285.202 Y60.179 E12.3755
G1 X285.431 Y61.056 E12.4254
G1 X285.603 Y62.015 E12.4790
G1 X285.693 Y62.921 E12.5291
G1 X285.715 Y63.574 E12.5650
G1 X285.715 Y65.672 E12.6804
G1 X285.685 Y66.464 E12.7240
G1 X285.548 Y67.606 E12.7873
G1 X285.384 Y68.403 E12.8320
G1 X285.115 Y69.350 E12.8862
G1 X284.781 Y70.240 E12.9385
G1 X284.347 Y71.156 E12.9942
G1 X284.488 Y71.473 E13.0133
G1 X284.768 Y72.265 E13.0595
G1 X285.027 Y73.233 E13.1146
G1 X285.192 Y74.123 E13.1644
G1 X285.286 Y75.013 E13.2136
G1 X285.315 Y75.767 E13.2551
G1 X285.315 Y76.884 E13.3166
G1 X285.267 Y77.871 E13.3709
G1 X285.153 Y78.774 E13.4210
G1 X285.004 Y79.523 E13.4630
G1 X284.687 Y80.639 E13.5268
G1 X284.370 Y81.468 E13.5756
G1 X284.023 Y82.216 E13.6210
G1 X283.475 Y83.180 E13.6820
G1 X282.942 Y83.952 E13.7336
G1 X282.475 Y84.537 E13.7748
G1 X281.833 Y85.233 E13.8268
G1 X281.034 Y85.964 E13.8864
G1 X280.245 Y86.568 E13.9411
G1 X279.495 Y87.054 E13.9902
G1 X278.818 Y87.428 E14.0328
G1 X277.895 Y87.849 E14.0886
G1 X276.897 Y88.204 E14.1468
G1 X276.001 Y88.439 E14.1978
G1 X275.028 Y88.615 E14.2522
G1 X274.136 Y88.704 E14.3015
G1 X273.435 Y88.727 E14.3400
G1 X259.306 Y88.734 E15.1172
G1 X259.197 Y89.113 E15.1389
G1 X258.826 Y90.063 E15.1950
G1 X259.050 Y90.587 E15.2263
G1 X259.377 Y91.575 E15.2836
G1 X259.566 Y92.344 E15.3271
G1 X259.728 Y93.323 E15.3817
G1 X259.815 Y94.322 E15.4369
G1 X259.825 Y94.748 E15.4603
G1 X259.824 Y97.179 E15.5940
G1 X259.788 Y98.028 E15.6408
G1 X259.667 Y99.023 E15.6959
G1 X259.464 Y100.000 E15.7508
G1 X259.197 Y100.915 E15.8032
G1 X258.880 Y101.747 E15.8522
G1 X258.524 Y102.510 E15.8985
G1 X257.985 Y103.457 E15.9584
G1 X257.448 Y104.236 E16.0105
G1 X256.865 Y104.953 E16.0613
G1 X256.293 Y105.561 E16.1072
G1 X255.594 Y106.199 E16.1593
G1 X254.756 Y106.846 E16.2175
G1 X254.012 Y107.327 E16.2662
G1 X253.144 Y107.797 E16.3205
G1 X252.370 Y108.141 E16.3671
G1 X251.570 Y108.430 E16.4139
G1 X250.488 Y108.723 E16.4756
G1 X249.725 Y108.866 E16.5183
G1 X248.625 Y108.982 E16.5791
G1 X247.761 Y109.002 E16.6266
G1 X246.929 Y108.962 E16.6724
G1 X245.800 Y108.810 E16.7351
G1 X244.907 Y108.612 E16.7854
G1 X244.145 Y108.385 E16.8291
G1 X243.089 Y107.973 E16.8915
G1 X242.172 Y107.520 E16.9478
G1 X229.839 Y100.725 E17.7223
G1 X229.020 Y100.226 E17.7750
G1 X228.228 Y99.653 E17.8288
G1 X227.591 Y99.112 E17.8748
G1 X226.832 Y98.358 E17.9336
G1 X226.352 Y97.803 E17.9740
G1 X225.704 Y96.915 E18.0344
G1 X225.201 Y96.097 E18.0872
G1 X224.831 Y95.376 E18.1318
G1 X224.443 Y94.446 E18.1872
G1 X224.153 Y93.555 E18.2388
G1 X223.919 Y92.573 E18.2943
G1 X223.793 Y91.780 E18.3385
G1 X223.701 Y90.321 E18.4189
G1 X223.700 Y89.261 E18.4772
G1 X223.726 Y88.734 E18.5062
G1 X210.596 Y88.734 E19.2284
G1 X210.364 Y88.941 E19.2455
G1 X209.705 Y89.457 E19.2916
G1 X208.833 Y90.031 E19.3490
G1 X207.948 Y90.512 E19.4044
G1 X207.063 Y90.901 E19.4576
G1 X206.215 Y91.198 E19.5070
G1 X205.390 Y91.419 E19.5540
G1 X204.413 Y91.604 E19.6086
G1 X203.421 Y91.705 E19.6635
G1 X202.763 Y91.727 E19.6997
G1 X201.858 Y91.727 E19.7495
G1 X200.871 Y91.679 E19.8038
G1 X199.968 Y91.565 E19.8539
G1 X199.219 Y91.416 E19.8959
G1 X198.194 Y91.128 E19.9545
G1 X197.394 Y90.832 E20.0014
G1 X196.372 Y90.355 E20.0634
G1 X195.561 Y89.887 E20.1149
G1 X194.788 Y89.355 E20.1665
G1 X194.024 Y88.727 E20.2209
G1 X159.325 Y88.734 E22.1295
G1 X159.315 Y119.440 E23.8185
G1 X159.528 Y119.677 E23.8360
G1 X160.045 Y120.337 E23.8821
G1 X160.611 Y121.194 E23.9386
G1 X161.108 Y122.112 E23.9960
G1 X161.489 Y122.979 E24.0481
G1 X161.786 Y123.827 E24.0975
G1 X162.007 Y124.652 E24.1445
G1 X162.192 Y125.629 E24.1992
G1 X162.293 Y126.620 E24.2540
G1 X162.315 Y127.274 E24.2900
G1 X162.315 Y128.184 E24.3400
G1 X162.267 Y129.171 E24.3944
G1 X162.153 Y130.074 E24.4445
G1 X162.004 Y130.823 E24.4865
G1 X161.716 Y131.848 E24.5450
G1 X161.420 Y132.648 E24.5919
G1 X160.943 Y133.670 E24.6540
G1 X160.475 Y134.481 E24.7055
G1 X159.943 Y135.254 E24.7571
G1 X159.315 Y136.018 E24.8115
G1 X159.323 Y157.285 E25.9813
G1 X159.535 Y157.207 E25.9937
G1 X160.519 Y156.928 E26.0499
G1 X161.470 Y156.742 E26.1032
G1 X162.364 Y156.639 E26.1527
G1 X163.220 Y156.603 E26.1999
G1 X165.609 Y156.603 E26.3313
G1 X166.547 Y156.646 E26.3829
G1 X167.501 Y156.765 E26.4358
G1 X168.283 Y156.922 E26.4797
G1 X169.363 Y157.230 E26.5414
G1 X170.186 Y157.544 E26.5899
G1 X171.033 Y157.942 E26.6414
G1 X171.827 Y158.393 E26.6916
G1 X172.562 Y158.890 E26.7404
G1 X173.378 Y159.541 E26.7978
G1 X174.036 Y160.162 E26.8476
G1 X174.713 Y160.911 E26.9031
G1 X175.295 Y161.672 E26.9558
G1 X175.758 Y162.386 E27.0026
G1 X176.247 Y163.288 E27.0591
G1 X176.628 Y164.156 E27.1112
G1 X176.940 Y165.055 E27.1635
G1 X177.169 Y165.932 E27.2134
G1 X177.341 Y166.891 E27.2670
G1 X177.431 Y167.808 E27.3177
G1 X177.449 Y168.691 E27.3662
G1 X177.399 Y169.608 E27.4168
G1 X177.262 Y170.623 E27.4731
G1 X177.083 Y171.442 E27.5192
G1 X176.781 Y172.440 E27.5766
G1 X176.471 Y173.232 E27.6233
G1 X176.158 Y173.901 E27.6640
G1 X169.832 Y186.299 E28.4295
G1 X169.427 Y187.016 E28.4748
G1 X168.915 Y187.783 E28.5256
G1 X168.221 Y188.661 E28.5871
G1 X167.664 Y189.254 E28.6319
G1 X167.012 Y189.856 E28.6807
G1 X166.188 Y190.504 E28.7383
G1 X165.398 Y191.023 E28.7903
G1 X164.638 Y191.442 E28.8381
G1 X163.644 Y191.890 E28.8980
G1 X162.774 Y192.197 E28.9488
G1 X162.053 Y192.396 E28.9899
G1 X160.964 Y192.605 E29.0509
G1 X159.993 Y192.704 E29.1046
G1 X159.315 Y192.716 E29.1419
G1 X159.315 Y197.872 E29.4255
G1 X159.285 Y198.664 E29.4691
G1 X159.149 Y199.806 E29.5324
G1 X158.996 Y200.558 E29.5746
G1 X158.688 Y201.638 E29.6363
G1 X158.370 Y202.470 E29.6853
G1 X158.038 Y203.186 E29.7287
G1 X157.582 Y204.008 E29.7804
G1 X157.032 Y204.832 E29.8349
G1 X156.456 Y205.560 E29.8860
G1 X155.756 Y206.310 E29.9424
G1 X155.007 Y206.987 E29.9980
G1 X154.245 Y207.570 E30.0507
G1 X153.476 Y208.066 E30.1011
G1 X152.670 Y208.503 E30.1515
G1 X151.957 Y208.825 E30.1945
G1 X150.898 Y209.204 E30.2564
G1 X149.994 Y209.443 E30.3078
G1 X149.218 Y209.589 E30.3513
G1 X148.276 Y209.694 E30.4034
G1 X147.438 Y209.727 E30.4495
G1 X146.330 Y209.726 E30.5105
G1 X145.437 Y209.685 E30.5596
G1 X144.448 Y209.560 E30.6145
G1 X143.373 Y209.327 E30.6750
G1 X140.501 Y209.320 E30.8329
G1 X139.697 Y209.604 E30.8798
G1 X138.851 Y209.829 E30.9280
G1 X137.828 Y210.015 E30.9852
G1 X136.936 Y210.104 E31.0345
G1 X136.263 Y210.127 E31.0715
G1 X134.158 Y210.127 E31.1873
G1 X133.171 Y210.079 E31.2417
G1 X132.233 Y209.960 E31.2937
G1 X131.468 Y209.804 E31.3366
G1 X130.511 Y209.534 E31.3913
G1 X129.680 Y209.227 E31.4400
G1 X128.689 Y208.759 E31.5003
G1 X128.371 Y208.899 E31.5194
G1 X127.594 Y209.174 E31.5648
G1 X126.578 Y209.446 E31.6226
G1 X125.785 Y209.593 E31.6670
G1 X124.846 Y209.697 E31.7189
G1 X124.070 Y209.727 E31.7617
G1 X122.958 Y209.727 E31.8228
G1 X121.971 Y209.679 E31.8772
G1 X121.098 Y209.570 E31.9256
G1 X120.253 Y209.400 E31.9730
G1 X119.272 Y209.122 E32.0291
G1 X118.430 Y208.806 E32.0785
G1 X117.596 Y208.419 E32.1291
G1 X116.662 Y207.887 E32.1882
G1 X115.910 Y207.370 E32.2384
G1 X115.164 Y206.766 E32.2912
G1 X114.560 Y206.196 E32.3369
G1 X113.938 Y205.517 E32.3875
G1 X113.399 Y204.834 E32.4354
G1 X112.778 Y203.890 E32.4976
G1 X112.336 Y203.074 E32.5486
G1 X111.954 Y202.208 E32.6007
G1 X111.648 Y201.341 E32.6512
G1 X111.406 Y200.437 E32.7027
G1 X111.253 Y199.626 E32.7481
G1 X111.137 Y198.534 E32.8085
G1 X111.115 Y197.838 E32.8468
G1 X111.109 Y191.954 E33.1705
G1 X110.746 Y191.848 E33.1913
G1 X109.793 Y191.476 E33.2475
G1 X109.193 Y191.730 E33.2834
G1 X108.282 Y192.028 E33.3361
G1 X107.462 Y192.228 E33.3825
G1 X106.418 Y192.396 E33.4407
G1 X105.610 Y192.463 E33.4853
G1 X105.088 Y192.476 E33.5140
G1 X102.672 Y192.475 E33.6469
G1 X101.830 Y192.439 E33.6932
G1 X100.836 Y192.318 E33.7483
G1 X99.859 Y192.115 E33.8032
G1 X98.945 Y191.848 E33.8556
G1 X98.111 Y191.531 E33.9046
G1 X97.303 Y191.152 E33.9537
G1 X96.403 Y190.637 E34.0108
G1 X95.626 Y190.102 E34.0627
G1 X94.943 Y189.552 E34.1109
G1 X94.332 Y188.979 E34.1570
G1 X93.606 Y188.181 E34.2163
G1 X93.032 Y187.434 E34.2681
G1 X92.516 Y186.637 E34.3203
G1 X92.079 Y185.831 E34.3708
G1 X91.744 Y185.086 E34.4157
G1 X91.378 Y184.059 E34.4757
G1 X91.139 Y183.152 E34.5273
G1 X90.983 Y182.307 E34.5745
G1 X90.877 Y181.278 E34.6314
G1 X90.858 Y180.488 E34.6749
G1 X90.919 Y179.366 E34.7367
G1 X91.049 Y178.450 E34.7876
G1 X91.255 Y177.522 E34.8399
G1 X91.510 Y176.685 E34.8880
G1 X91.819 Y175.893 E34.9348
G1 X92.315 Y174.866 E34.9975
G1 X99.143 Y162.474 E35.7757
G1 X99.619 Y161.692 E35.8261
G1 X100.124 Y160.987 E35.8738
G1 X100.758 Y160.230 E35.9281
G1 X101.501 Y159.483 E35.9860
G1 X102.070 Y158.991 E36.0274
G1 X102.984 Y158.325 E36.0896
G1 X103.762 Y157.852 E36.1397
G1 X104.514 Y157.468 E36.1862
G1 X105.476 Y157.071 E36.2434
G1 X106.272 Y156.813 E36.2894
G1 X107.318 Y156.564 E36.3486
G1 X108.118 Y156.440 E36.3931
G1 X109.551 Y156.351 E36.4721
G1 X110.606 Y156.351 E36.5301
G1 X111.108 Y156.375 E36.5577
G1 X111.115 Y135.014 E37.7327
G1 X110.902 Y134.777 E37.7502
G1 X110.385 Y134.117 E37.7963
G1 X109.819 Y133.260 E37.8528
G1 X109.322 Y132.342 E37.9102
G1 X108.941 Y131.475 E37.9623
G1 X108.634 Y130.596 E38.0135
G1 X108.423 Y129.802 E38.0587
G1 X108.238 Y128.825 E38.1134
G1 X108.137 Y127.833 E38.1683
G1 X108.115 Y127.136 E38.2066
G1 X108.116 Y126.241 E38.2558
G1 X108.163 Y125.283 E38.3086
G1 X108.277 Y124.380 E38.3587
G1 X108.426 Y123.631 E38.4007
G1 X108.708 Y122.623 E38.4582
G1 X109.030 Y121.757 E38.5091
G1 X109.487 Y120.784 E38.5682
G1 X109.955 Y119.973 E38.6197
G1 X110.487 Y119.200 E38.6713
G1 X111.115 Y118.434 E38.7258
G1 X111.116 Y77.742 E40.9640
G1 X111.161 Y76.800 E41.0159
G1 X111.282 Y75.848 E41.0687
G1 X111.438 Y75.083 E41.1116
G1 X111.708 Y74.123 E41.1665
G1 X112.039 Y73.234 E41.2186
G1 X112.389 Y72.473 E41.2647
G1 X112.954 Y71.475 E41.3278
G1 F1800 E40.8278
G0 F7200 X113.300 Y71.713
G1 F1800 E41.3278
G1 F2100 X113.816 Y70.961 E41.3780
G1 X114.325 Y70.326 E41.4227
G1 X114.952 Y69.659 E41.4731
G1 X115.627 Y69.042 E41.5234
G1 X116.339 Y68.489 E41.5730
G1 X117.166 Y67.952 E41.6272
G1 X117.892 Y67.556 E41.6727
G1 X118.723 Y67.182 E41.7228
G1 X119.672 Y66.846 E41.7782
G1 X120.485 Y66.631 E41.8244
G1 X121.376 Y66.467 E41.8743
G1 X122.366 Y66.367 E41.9290
G1 X122.537 Y66.014 E41.9506
G1 X122.541 Y64.365 E42.0413
G1 X122.576 Y63.515 E42.0881
G1 X122.689 Y62.556 E42.1412
G1 X122.880 Y61.624 E42.1935
G1 X123.143 Y60.722 E42.2452
G1 X123.463 Y59.887 E42.2944
G1 X123.842 Y59.082 E42.3433
G1 X124.308 Y58.270 E42.3948
